!!!SOCIAL_FUNCTION:	bird dance songs
!!!PDT:	1956
!!!OTL: No_124_Blackbird_Dance_Song.krn
!!!LANG: Non-Tone
!!!LING_GROUP: Muskogean
!!!REG: Florida
**kern	**kern
*staff2	*staff1
=1-	=1-
*clefF4	*clefF4
*k[f#]	*k[f#]
*M2/4	*M2/4
4GG/	8r
.	16B\LL
.	16B\JJ
4GG/	4B\
=2	=2
4GG/	(16A^\LL
.	16G\)
.	16G\
.	16G\JJ
4GG/	4G\
=3	=3
2r	(16G^\LL
.	16E\)
.	16E\
.	16E\JJ
.	4E\
=4	=4
2r	16E\LL
.	16E\
.	16G\
.	16G\JJ
.	16G\LL
.	16G\J
.	8G\J
=5	=5
2r	8A\L
.	16G\L
.	16E\JJ
.	8G\
.	8r
=6	=6
2r	8r
.	16E\LL
.	16E\JJ
.	4E\
=7	=7
2r	16B\LL
.	16B\
.	(16B\
.	16A\JJ)
.	4A\
=8	=8
2r	(16A^\LL
.	16G\)
.	16G\
.	16G\JJ
.	4G\
=9	=9
2r	16G^\LL
.	16G\
.	16E\
.	16E\JJ
.	4E\
=10	=10
2r	8E\L
.	16G\L
.	16G\JJ
.	16G\LL
.	16G\J
.	8G\J
=11||	=11||
*M3/4	*M3/4
2.r	8A\L
.	(16G\L
.	16E\JJ)
.	4G\
.	4r
=12||	=12||
*M2/4	*M2/4
2r	(16G\LL
.	16E\J)
.	8E\J
.	4E\
=13	=13
2r	16B^\LL
.	16A\
.	16G\
.	16G\JJ
.	4G\
=14||	=14||
*M5/8	*M5/8
3...r	8.G\L
.	16E\K
.	8G\
.	16E\L
.	16E\J
.	8D\J
=15||	=15||
*M2/4	*M2/4
2r	16B^\LL
.	16A\
.	16G\
.	16G\JJ
.	4G\
=16||	=16||
*M5/8	*M5/8
3...r	8.G\L
.	16E\K
.	8G\
.	16E\L
.	16E\J
.	8D\J
=17||	=17||
*M2/4	*M2/4
2r	16B^\LL
.	16A\
.	16G\
.	16G\JJ
.	4G\
=18||	=18||
*M5/8	*M5/8
3...r	8.G\L
.	16E\K
.	8G\
.	16E\L
.	16E\J
.	8D\J
==	==
*-	*-
